icons-dark/apps/48/flow.svg

<svg width="48" xmlns="http://www.w3.org/2000/svg" height="48" xmlns:xlink="http://www.w3.org/1999/xlink">
 <defs>
  <linearGradient id="a" y1="37" x1="13" y2="24" x2="8" gradientUnits="userSpaceOnUse">
   <stop stop-color="#ec4c21"/>
   <stop offset="1" stop-color="#ec7b0f"/>
  </linearGradient>
  <linearGradient id="b" y1="33" x1="36" y2="40" x2="23" gradientUnits="userSpaceOnUse">
   <stop stop-color="#06a370"/>
   <stop offset="1" stop-color="#22d1b0"/>
  </linearGradient>
  <linearGradient id="c" y1="12" x1="33" y2="24" x2="38" gradientUnits="userSpaceOnUse">
   <stop stop-color="#faae2a"/>
   <stop offset="1" stop-color="#ffc35a"/>
  </linearGradient>
  <linearGradient id="d" y1="15" x1="12" y2="8" x2="24" gradientUnits="userSpaceOnUse">
   <stop stop-color="#2e5d89"/>
   <stop offset="1" stop-color="#1b92f4"/>
  </linearGradient>
  <linearGradient id="e" y1="10.361" x1="9.404" y2="15.713" x2="14.756" gradientUnits="userSpaceOnUse">
   <stop/>
   <stop offset="1" stop-opacity="0"/>
  </linearGradient>
  <linearGradient xlink:href="#e" id="f" y1="30.28" x1="34.21" y2="35.79" x2="39.724" gradientUnits="userSpaceOnUse"/>
  <linearGradient xlink:href="#e" id="g" y1="34.21" x1="17.725" y2="41.873" x2="25.387" gradientUnits="userSpaceOnUse"/>
 </defs>
 <path fill="url(#d)" stroke-linejoin="bevel" stroke-width="6.2" d="M24 4A20 20 0 0 0 9.261719 10.515625L12.05 23C12.57 16.785 17.764 12 24 12L27 8 26.14 4.121A20 20 0 0 0 24 4"/>
 <path opacity=".2" fill="url(#e)" fill-rule="evenodd" d="M9.404297 10.361328A20 20 0 0 0 8.525391 11.363281L5.928 20.885 12.582 20.373A12 12 0 0 1 15.06445 16.02148z"/>
 <g stroke-linejoin="bevel" stroke-width="6.2">
  <path fill="url(#a)" d="M9.40625 10.361328A20 20 0 0 0 4 24 20 20 0 0 0 10.443359 38.669922L23 35.949C16.785 35.43 12 30.24 12 24H17.525L12.572 15.68z"/>
  <path fill="url(#b)" d="m35.949 25c-.52 6.215-5.713 10.995-11.949 11v-5.525l-13.639 8.119a20 20 0 0 0 13.638672 5.40625 20 20 0 0 0 14.775391 -6.556641c-.003-.004-.005-.008-.008-.012z"/>
  <path fill="url(#c)" d="m36.451 9.143l-11.451 2.908c6.215.52 10.995 5.713 11 11.949h-5.525l8.119 13.639a20 20 0 0 0 5.40625 -13.638672 20 20 0 0 0 -6.576172 -14.792969c-.324-.018-.649-.048-.973-.064"/>
  <path fill="url(#d)" d="m24.03 4l-.025 7.998v5.525l13.639-8.119a20 20 0 0 0 -13.613281 -5.404297"/>
 </g>
 <g fill-rule="evenodd">
  <path opacity=".2" fill="url(#f)" d="m34.21 30.28l4.387 7.367a20 20 0 0 0 1.357422 -1.623046z"/>
  <path opacity=".2" fill="url(#g)" d="m17.725 34.21l-7.371 4.389a20 20 0 0 0 13.646484 5.400391 20 20 0 0 0 3.226562 -.287109z"/>
 </g>
 <path opacity=".2" stroke-linejoin="bevel" fill-opacity=".314" stroke-width="6.2" d="M43.978516 23.417969A20 20 0 0 1 24 43 20 20 0 0 1 4.02148 23.582031 20 20 0 0 0 4 24 20 20 0 0 0 24 44 20 20 0 0 0 44 24 20 20 0 0 0 43.978516 23.417969"/>
</svg>

<?xml version="1.0" encoding="UTF-8" standalone="no"?>

<!-- Created with Inkscape (http://www.inkscape.org/) -->
<svg width="48" version="1.1" xmlns="http://www.w3.org/2000/svg" height="48" xmlns:xlink="http://www.w3.org/1999/xlink" xmlns:inkscape="http://www.inkscape.org/namespaces/inkscape">
 <defs id="defs2987">
  <linearGradient inkscape:collect="always" id="linearGradient4985">
   <stop id="stop4987"/>
   <stop offset="1" style="stop-opacity:0" id="stop4989"/>
  </linearGradient>
  <linearGradient inkscape:collect="always" id="linearGradient4221">
   <stop style="stop-color:#06a370" id="stop4223"/>
   <stop offset="1" style="stop-color:#22d1b0" id="stop4225"/>
  </linearGradient>
  <linearGradient inkscape:collect="always" id="linearGradient4660">
   <stop style="stop-color:#ec4c21" id="stop4662"/>
   <stop offset="1" style="stop-color:#ec7b0f" id="stop4664"/>
  </linearGradient>
  <linearGradient inkscape:collect="always" xlink:href="#linearGradient4660" id="linearGradient4465" y1="37" x1="13" y2="24" x2="8" gradientUnits="userSpaceOnUse"/>
  <linearGradient inkscape:collect="always" xlink:href="#linearGradient4221" id="linearGradient4553" y1="33" x1="36" y2="40" x2="23" gradientUnits="userSpaceOnUse"/>
  <linearGradient inkscape:collect="always" id="linearGradient4143">
   <stop style="stop-color:#faae2a" id="stop4145"/>
   <stop offset="1" style="stop-color:#ffc35a" id="stop4147"/>
  </linearGradient>
  <linearGradient inkscape:collect="always" xlink:href="#linearGradient4143" id="linearGradient4620" y1="12" x1="33" y2="24" x2="38" gradientUnits="userSpaceOnUse"/>
  <linearGradient inkscape:collect="always" id="linearGradient5002">
   <stop style="stop-color:#2e5d89" id="stop5004"/>
   <stop offset="1" style="stop-color:#1b92f4" id="stop5006"/>
  </linearGradient>
  <linearGradient inkscape:collect="always" xlink:href="#linearGradient5002" id="linearGradient4932" y1="15" x1="12" y2="8" x2="24" gradientUnits="userSpaceOnUse"/>
  <linearGradient inkscape:collect="always" xlink:href="#linearGradient4985" id="linearGradient4991" y1="10.361328" x1="9.404297" y2="15.712891" x2="14.755859" gradientUnits="userSpaceOnUse"/>
  <linearGradient inkscape:collect="always" xlink:href="#linearGradient4985" id="linearGradient5024" y1="30.2793" x1="34.21289" y2="35.790039" x2="39.723633" gradientUnits="userSpaceOnUse"/>
  <linearGradient inkscape:collect="always" xlink:href="#linearGradient4985" id="linearGradient5057" y1="34.21094" x1="17.724609" y2="41.873219" x2="25.38689" gradientUnits="userSpaceOnUse"/>
 </defs>
 <metadata id="metadata2990"/>
 <g inkscape:label="Layer 1" inkscape:groupmode="layer" id="layer1">
  <path style="fill:url(#linearGradient4932);stroke-linecap:round;stroke-linejoin:bevel;stroke-width:6.2" id="path4287" d="M 24 4 A 20 20 0 0 0 9.2617188 10.515625 L 12.050781 23 C 12.570468 16.78543 17.76374 12.004699 24 12 L 27 8 L 26.140625 4.1210938 A 20 20 0 0 0 24 4 z "/>
  <path style="fill:url(#linearGradient4991);opacity:0.2;fill-rule:evenodd" id="path4954" d="M 9.4042969 10.361328 A 20 20 0 0 0 8.5253906 11.363281 L 5.9277344 20.884766 L 12.582031 20.373047 A 12 12 0 0 1 15.064453 16.021484 L 9.4042969 10.361328 z "/>
  <path style="fill:url(#linearGradient4465);stroke-linecap:round;stroke-linejoin:bevel;stroke-width:6.2" id="path4162-7-1-9-9" d="M 9.40625 10.361328 A 20 20 0 0 0 4 24 A 20 20 0 0 0 10.443359 38.669922 L 23 35.949219 C 16.78543 35.429532 12.004699 30.23626 12 24 L 17.525391 24 L 13.789062 17.724609 L 12.572266 15.679688 L 9.40625 10.361328 z "/>
  <path style="fill:url(#linearGradient4553);stroke-linecap:round;stroke-linejoin:bevel;stroke-width:6.2" id="path4162-7-1-9" d="M 35.949219 25 C 35.429532 31.21457 30.23626 35.995301 24 36 L 24 30.474609 L 17.724609 34.210938 L 15.679688 35.427734 L 10.361328 38.59375 A 20 20 0 0 0 24 44 A 20 20 0 0 0 38.775391 37.443359 C 38.772619 37.439322 38.770352 37.435679 38.767578 37.431641 L 35.949219 25 z "/>
  <path style="fill:url(#linearGradient4620);stroke-linecap:round;stroke-linejoin:bevel;stroke-width:6.2" id="path4162-7-1" d="M 36.451172 9.1425781 L 25 12.050781 C 31.21457 12.570468 35.995301 17.76374 36 24 L 30.474609 24 L 34.210938 30.275391 L 35.427734 32.320312 L 38.59375 37.638672 A 20 20 0 0 0 44 24 A 20 20 0 0 0 37.423828 9.2070312 C 37.099348 9.1888016 36.774748 9.1587771 36.451172 9.1425781 z "/>
  <path style="fill:url(#linearGradient4932);stroke-linecap:round;stroke-linejoin:bevel;stroke-width:6.2" id="path4162-7" d="M 24.025391 4.0019531 L 24 12 L 24 17.525391 L 30.275391 13.789062 L 32.320312 12.572266 L 37.638672 9.40625 A 20 20 0 0 0 24.025391 4.0019531 z "/>
  <path style="fill:url(#linearGradient5024);opacity:0.2;fill-rule:evenodd" id="path4956" d="M 34.212891 30.279297 L 35.427734 32.320312 L 38.599609 37.646484 A 20 20 0 0 0 39.957031 36.023438 L 34.212891 30.279297 z "/>
  <path style="fill:url(#linearGradient5057);opacity:0.2;fill-rule:evenodd" id="path4958" d="M 17.724609 34.210938 L 15.679688 35.427734 L 10.353516 38.599609 A 20 20 0 0 0 24 44 A 20 20 0 0 0 27.226562 43.712891 L 17.724609 34.210938 z "/>
  <path style="opacity:0.2;fill-opacity:0.313726;stroke-linecap:round;stroke-linejoin:bevel;stroke-width:6.2" id="path4193" d="M 43.978516 23.417969 A 20 20 0 0 1 24 43 A 20 20 0 0 1 4.0214844 23.582031 A 20 20 0 0 0 4 24 A 20 20 0 0 0 24 44 A 20 20 0 0 0 44 24 A 20 20 0 0 0 43.978516 23.417969 z "/>
 </g>
</svg>
